icons/4_Outdated/LogMeIn.svg

<svg xmlns="http://www.w3.org/2000/svg" viewBox="0 0 1024 1024">
   <circle cx="512" cy="512" r="512" style="fill:#45b6f2"/>
   <path d="M768 512c0-141.4-114.6-256-256-256S256 370.6 256 512s114.6 256 256 256 256-114.6 256-256zM423.7 660.7c-2 2.8-5.3 4.6-8.7 4.7h-46.7c-2.4-.2-4.7-1.1-6.6-2.6-1.6-1.8-2.5-4.1-2.6-6.5-.3-3-.5-6-.5-9.1V374.7c-.4-4 .3-8.1 2-11.7 1.8-2.6 4.7-4.2 7.9-4.5h48.2c2.6 0 5 1.2 6.5 3.2 1.5 2.3 2.3 5 2.3 7.8v281.2c.3 3.4-.3 6.9-1.8 10zm252.9-5.9c.4 4.3-2.2 8.3-6.3 9.7-15.2.9-30.4.9-45.5 0-2.5-.3-4.8-1.6-6.2-3.7-1.2-2-1.9-4.3-2-6.6V550.7c.2-9.9-.2-19.7-1.3-29.5.1-20.7-16.7-37.5-37.3-37.5h-2.3c-22.1-.6-41 15.7-43.6 37.7-1.8 14.1-2.7 28.4-2.7 42.7v88.2c.1 2.2-.3 4.4-1.3 6.4-1.2 3-3.8 5.1-6.9 5.7-14.2.9-28.5.9-42.7 0-2.6 0-5.1-1.1-6.9-3-2.2-3.3-3.2-7.3-2.9-11.3V451.8c.1-2.4.9-4.7 2.5-6.5 1.7-2.3 5.4-3.4 12.3-3.4H508c6.9 0 15.5 0 16.5 6.6 0 1.6 1.8 14.8 7.5 14.9 1.7 0 3.2-.8 4.3-2.1 4.7-4.9 10-9.4 15.6-13.3 26.7-13.9 58.2-15.4 86.1-4.2 11.3 5.1 20.8 13.6 27.2 24.2 7.9 15.3 11.9 32.4 11.6 49.6l-.2 137.2z" style="fill:#fff"/>
</svg>

<svg width="1024" height="1024" viewBox="0 0 1024 1024" fill="none" xmlns="http://www.w3.org/2000/svg">
<g clip-path="url(#clip0_3_587)">
<path d="M512 1024C794.77 1024 1024 794.77 1024 512C1024 229.23 794.77 0 512 0C229.23 0 0 229.23 0 512C0 794.77 229.23 1024 512 1024Z" fill="#9ABEFF"/>
<path d="M768 512C768 370.6 653.4 256 512 256C370.6 256 256 370.6 256 512C256 653.4 370.6 768 512 768C653.4 768 768 653.4 768 512ZM423.7 660.7C421.7 663.5 418.4 665.3 415 665.4H368.3C365.9 665.2 363.6 664.3 361.7 662.8C360.1 661 359.2 658.7 359.1 656.3C358.8 653.3 358.6 650.3 358.6 647.2V374.7C358.2 370.7 358.9 366.6 360.6 363C362.4 360.4 365.3 358.8 368.5 358.5H416.7C419.3 358.5 421.7 359.7 423.2 361.7C424.7 364 425.5 366.7 425.5 369.5V650.7C425.8 654.1 425.2 657.6 423.7 660.7ZM676.6 654.8C677 659.1 674.4 663.1 670.3 664.5C655.1 665.4 639.9 665.4 624.8 664.5C622.3 664.2 620 662.9 618.6 660.8C617.4 658.8 616.7 656.5 616.6 654.2V550.7C616.8 540.8 616.4 531 615.3 521.2C615.4 500.5 598.6 483.7 578 483.7H575.7C553.6 483.1 534.7 499.4 532.1 521.4C530.3 535.5 529.4 549.8 529.4 564.1V652.3C529.5 654.5 529.1 656.7 528.1 658.7C526.9 661.7 524.3 663.8 521.2 664.4C507 665.3 492.7 665.3 478.5 664.4C475.9 664.4 473.4 663.3 471.6 661.4C469.4 658.1 468.4 654.1 468.7 650.1V451.8C468.8 449.4 469.6 447.1 471.2 445.3C472.9 443 476.6 441.9 483.5 441.9H508C514.9 441.9 523.5 441.9 524.5 448.5C524.5 450.1 526.3 463.3 532 463.4C533.7 463.4 535.2 462.6 536.3 461.3C541 456.4 546.3 451.9 551.9 448C578.6 434.1 610.1 432.6 638 443.8C649.3 448.9 658.8 457.4 665.2 468C673.1 483.3 677.1 500.4 676.8 517.6L676.6 654.8Z" fill="white"/>
</g>
<defs>
<clipPath id="clip0_3_587">
<rect width="1024" height="1024" fill="white"/>
</clipPath>
</defs>
</svg>
